svgs/solid/memo-circle-check.svg

<svg xmlns="http://www.w3.org/2000/svg" viewBox="0 0 576 512"><!--! Font Awesome Pro 6.2.0 by @fontawesome - https://fontawesome.com License - https://fontawesome.com/license (Commercial License) Copyright 2022 Fonticons, Inc. --><path d="M0 64C0 28.7 28.7 0 64 0H320c35.3 0 64 28.7 64 64V198.6C310.1 219.5 256 287.4 256 368c0 59.1 29.1 111.3 73.7 143.3c-3.2 .5-6.4 .7-9.7 .7H64c-35.3 0-64-28.7-64-64V64zm64 80c0 8.8 7.2 16 16 16H304c8.8 0 16-7.2 16-16s-7.2-16-16-16H80c-8.8 0-16 7.2-16 16zm16 80c-8.8 0-16 7.2-16 16s7.2 16 16 16H240c8.8 0 16-7.2 16-16s-7.2-16-16-16H80zm0 96c-8.8 0-16 7.2-16 16s7.2 16 16 16h96c8.8 0 16-7.2 16-16s-7.2-16-16-16H80zm496 48c0 79.5-64.5 144-144 144s-144-64.5-144-144s64.5-144 144-144s144 64.5 144 144zm-99.3-43.3L416 385.4l-28.7-28.7c-6.2-6.2-16.4-6.2-22.6 0s-6.2 16.4 0 22.6l40 40c6.2 6.2 16.4 6.2 22.6 0l72-72c6.2-6.2 6.2-16.4 0-22.6s-16.4-6.2-22.6 0z"/></svg>

<svg xmlns="http://www.w3.org/2000/svg" viewBox="0 0 576 512"><!--! Font Awesome Pro 6.1.2 by @fontawesome - https://fontawesome.com License - https://fontawesome.com/license (Commercial License) Copyright 2022 Fonticons, Inc. --><path d="M288 368C288 288.5 352.5 224 432 224C511.5 224 576 288.5 576 368C576 447.5 511.5 512 432 512C352.5 512 288 447.5 288 368zM499.3 347.3C505.6 341.1 505.6 330.9 499.3 324.7C493.1 318.4 482.9 318.4 476.7 324.7L416 385.4L387.3 356.7C381.1 350.4 370.9 350.4 364.7 356.7C358.4 362.9 358.4 373.1 364.7 379.3L404.7 419.3C410.9 425.6 421.1 425.6 427.3 419.3L499.3 347.3zM320 0C355.3 0 384 28.65 384 64V198.6C310.1 219.5 256 287.4 256 368C256 427.1 285.1 479.3 329.7 511.3C326.6 511.7 323.3 512 320 512H64C28.65 512 0 483.3 0 448V64C0 28.65 28.65 0 64 0H320zM80 128C71.16 128 64 135.2 64 144C64 152.8 71.16 160 80 160H304C312.8 160 320 152.8 320 144C320 135.2 312.8 128 304 128H80zM80 256H240C248.8 256 256 248.8 256 240C256 231.2 248.8 224 240 224H80C71.16 224 64 231.2 64 240C64 248.8 71.16 256 80 256zM80 352H176C184.8 352 192 344.8 192 336C192 327.2 184.8 320 176 320H80C71.16 320 64 327.2 64 336C64 344.8 71.16 352 80 352z"/></svg>
